X: 38422
T: Star, The
R: jig
M: 6/8
K: Gmajor
|:dBB GBB|GBB d2e|dBB GBB|cAB c2e|
dBc def|gfe dcB|gfe dcB|cAB c2e:|
|:dBB gBB|dBB d2e|dBB gBB|cAB c2e|
dBB gBB|dBB def|gfe dcB|cAB c2e:|

